X: 11
T: The Road To Skye
R: jig
M: 6/8
L: 1/8
K: Amaj
E|AGF ECE|Ace (f2 e)|aec cBc|dFF (F2 E)|
|AGF ECE|Ace (f2 e)|aec BAB|cAA A2:|
B|Ace Ace|Ace dcB|Ace fga|gee efg|
|1a3 g3|f3e2c|dcd Bed|cAA A2:|
|2 aAA gAA|fAA e2c|dcd Bed|cAA A3||


Tune 1709	Setting 15134

